X: 1
T: R\^eve du qu\^eteux Tremblay de Aim\'e Gagnon
T: Beggar Tremblay's Dream
C: qu\^eteux Tremblay
R: reel
Z: 2007 John Chambers <jc:trillian.mit.edu> from Pascal Gemme's web site
M: C|
L: 1/8
K: D
[| faaa baaa | faaf gfeg | faaa baaf | gfea fede |
|  faaa baaa | faaf gfeg | faaa baaf | gfec d2[f2d2] |]
[| Adfd B2gf | eaaa fdfd | Adfd B2gf | ecec d2[f2d2] |
|  Adfd B2gf | eaaa fdfd | Adfd B2gf | ecec d4 |]
